tools/download-figma-icons/icons/outlined-large/tools.svg

<svg width="65" height="65" viewBox="0 0 65 65" fill="none" xmlns="http://www.w3.org/2000/svg">
<path fill-rule="evenodd" clip-rule="evenodd" d="M50.3845 55.7697L58.5497 61.0839L61.0921 58.5415L55.7769 50.3773L51.3105 49.1761L38.5915 36.4572L36.4664 38.5843L49.1844 51.3022L50.3845 55.7697ZM21.0548 58.8613C23.8378 56.0773 24.8328 52.0109 23.653 48.2502L23.3768 47.3699L47.3548 23.3808L48.2361 23.659C52.0029 24.8459 56.0723 23.8519 58.8553 21.0699C60.9987 18.9266 62.0831 16.0268 61.9348 13.0885L56.0865 18.9367L48.032 16.9589L46.0541 8.90328L51.8922 3.06516C48.9549 2.93114 46.0805 4.00739 43.9412 6.14668C41.1623 8.9246 40.1703 12.9991 41.3532 16.7771L41.6283 17.6584L17.6332 41.612L16.7559 41.3399C12.9809 40.1662 8.91456 41.1622 6.14171 43.936C3.99734 46.0804 2.91297 48.9802 3.06121 51.9185L8.90948 46.0703L16.9641 48.0471L18.9419 56.1027L13.1038 61.9408C16.0289 62.0779 18.9155 60.9996 21.0548 58.8613ZM5.27462 15.9781L18.2799 28.9834C19.212 29.1986 21.1147 29.8433 23.2936 31.6577L31.672 23.2935C29.8526 21.1126 29.2058 19.2058 28.9906 18.2727L15.9853 5.26639C13.0276 2.30875 8.22008 2.30469 5.25634 5.24913C2.3119 8.21388 2.31799 13.0214 5.27462 15.9781ZM52.8883 46.4459L57.6928 47.7374L64.992 58.9497L58.9569 64.9847L47.7457 57.6846L46.4542 52.8811L34.3129 40.7388L26.8107 48.2441C27.9123 52.8293 26.5741 57.648 23.2083 61.0148C20.6141 63.609 17.1631 65 13.6226 65C12.2529 65 10.8711 64.7918 9.51868 64.3644L7.12759 63.608L15.5741 55.1625L14.446 50.5661L9.84967 49.4371L1.39202 57.8947L0.636615 55.5016C-0.896525 50.6402 0.386845 45.3829 3.98719 41.7825C7.34182 38.4269 12.1606 37.0857 16.7569 38.1832L21.1259 33.8224C19.0404 32.1634 17.4341 31.9156 17.355 31.9055L16.8432 31.8374L16.4584 31.4699L3.12112 18.1316C-1.01735 13.9931 -1.02953 7.26658 3.08558 3.11288L3.10284 3.09562L3.12112 3.07735C7.27481 -1.03776 14.0013 -1.02558 18.1388 3.11288L31.8568 16.8309L31.9137 17.365C31.9228 17.429 32.1706 19.0393 33.8398 21.1298L38.1955 16.7812C37.0908 12.1808 38.426 7.3539 41.7877 3.99317C45.386 0.39486 50.6312 -0.890541 55.4774 0.641584L57.8684 1.398L49.422 9.84347L50.551 14.4409L55.1464 15.5699L63.605 7.11123L64.3594 9.50436C65.8926 14.3657 64.6092 19.6231 61.0088 23.2234C57.6441 26.5882 52.8223 27.9274 48.2279 26.8156L40.744 34.3037L52.8883 46.4459ZM25.0161 22.8747L11.7174 9.57593L13.8709 7.42243L27.1696 20.7212L25.0161 22.8747ZM7.42944 13.8633L20.7282 27.1631L22.8817 25.0096L9.58295 11.7098L7.42944 13.8633ZM32.4966 34.6534L30.3472 32.504L32.4966 30.3535L34.6471 32.504L32.4966 34.6534ZM35.5616 27.2886L37.711 29.439L39.8615 27.2886L37.711 25.1391L35.5616 27.2886ZM27.296 39.854L25.1466 37.7046L27.296 35.5541L29.4465 37.7046L27.296 39.854Z" fill="black"/>
</svg>

<svg xmlns="http://www.w3.org/2000/svg" width="65" height="65" fill="none" viewBox="0 0 65 65"><path fill="currentColor" fill-rule="evenodd" d="m50.385 55.77 8.165 5.314 2.542-2.543-5.315-8.164-4.467-1.2-12.718-12.72-2.126 2.127 12.718 12.718zm-29.33 3.091a10.51 10.51 0 0 0 2.598-10.61l-.276-.881 23.978-23.99.881.279a10.51 10.51 0 0 0 10.62-2.59 10.52 10.52 0 0 0 3.079-7.98l-5.849 5.848-8.054-1.978-1.978-8.056 5.838-5.838a10.52 10.52 0 0 0-7.95 3.082c-2.78 2.778-3.772 6.852-2.589 10.63l.275.881-23.995 23.954-.877-.272c-3.775-1.174-7.841-.178-10.614 2.596a10.52 10.52 0 0 0-3.08 7.983l5.847-5.849 8.055 1.977 1.978 8.056-5.838 5.838a10.52 10.52 0 0 0 7.95-3.08M5.275 15.978 18.28 28.983c.932.216 2.835.86 5.014 2.675l8.378-8.364c-1.82-2.181-2.466-4.088-2.681-5.021L15.985 5.266C13.028 2.31 8.22 2.305 5.256 5.25c-2.944 2.965-2.938 7.772.019 10.73m47.613 30.468 4.805 1.291 7.299 11.213-6.035 6.035-11.211-7.3-1.292-4.804L34.313 40.74l-7.502 7.505a13.54 13.54 0 0 1-3.603 12.77 13.54 13.54 0 0 1-13.69 3.35l-2.39-.756 8.446-8.445-1.128-4.597-4.596-1.129-8.458 8.458-.755-2.393a13.57 13.57 0 0 1 3.35-13.72 13.56 13.56 0 0 1 12.77-3.599l4.369-4.36c-2.086-1.66-3.692-1.907-3.771-1.918l-.512-.068-.385-.367L3.121 18.132c-4.138-4.139-4.15-10.865-.035-15.02l.017-.016.018-.019c4.154-4.115 10.88-4.103 15.018.036L31.857 16.83l.057.534c.009.064.257 1.674 1.926 3.765l4.355-4.349a13.56 13.56 0 0 1 3.593-12.788 13.53 13.53 0 0 1 13.69-3.35l2.39.756-8.446 8.445 1.129 4.598 4.595 1.129 8.459-8.459.754 2.393a13.57 13.57 0 0 1-3.35 13.72 13.53 13.53 0 0 1-12.781 3.592l-7.484 7.488zM25.016 22.875l-13.299-13.3 2.154-2.153 13.299 13.3zM7.43 13.863l13.3 13.3 2.153-2.153-13.3-13.3zm25.068 20.79-2.15-2.149 2.15-2.15 2.15 2.15zm3.065-7.364 2.149 2.15 2.15-2.15-2.15-2.15zm-8.266 12.565-2.15-2.15 2.15-2.15 2.15 2.15z" clip-rule="evenodd"/></svg>
